svg/300/outlined/cancel_presentation-fill.svg

<svg xmlns="http://www.w3.org/2000/svg" width="48" height="48" viewBox="0 -960 960 960"><path d="m363-331.001 117-117 117 117L628.999-363l-117-117 117-117L597-628.999l-117 117-117-117L331.001-597l117 117-117 117L363-331.001Zm-205.306 151q-23.616 0-40.654-17.039-17.039-17.038-17.039-40.654v-484.612q0-23.616 17.039-40.654 17.038-17.039 40.654-17.039h644.612q23.616 0 40.654 17.039 17.039 17.038 17.039 40.654v484.612q0 23.616-17.039 40.654-17.038 17.039-40.654 17.039H157.694Z"/></svg>

<svg xmlns="http://www.w3.org/2000/svg" width="48" height="48" viewBox="0 -960 960 960"><path d="m363-331 117-117 117 117 32-32-117-117 117-117-32-32-117 117-117-117-32 32 117 117-117 117 32 32ZM157.69-180q-23.61 0-40.65-17.04T100-237.69v-484.62q0-23.61 17.04-40.65T157.69-780h644.62q23.61 0 40.65 17.04T860-722.31v484.62q0 23.61-17.04 40.65T802.31-180H157.69Z"/></svg>
